X: 40836
T: Tralee Gaol
R: polka
M: 2/4
K: Adorian
|:eA AB/d/|e>d Bd|eA AB/A/|G>A Bd|
eA AB/d/|e>d Bd|ed gB|A2 A2:|
|:ea ag/a/|b>a ge|dB gB|d/c/B/A/ Gd|
ea ag/a/|b>a ge|ed gB|A2 A2:|

